X:1
T:Take Me In Your Arms
T:Take me in your arms
T:Fred Markush
T:Mitchell Parrish, German lyrics Fritz Rotter
C:Fred Markush
Z:All Rights Reserved
L:1/4
M:4/4
K:C
V:1 treble 
%%MIDI program 4
V:1
"Am" e/f/g/f/ e2- | e A B c |"Dm" e e e/ _e3/2 | d4 |"E7" B/c/d/c/ B2- | B E ^F ^G |"Am" A4 | %7
w: Take me in your arms|* be- fore you|take your love a-|way|take me in your arms|* be- fore we|part|
"Dm" z4 |"E7" e/"Am"f/g/f/ e2- | e A B c |"Dm" e e e/ _e3/2 | d4 |"E7" B/c/d/c/ B2- | B E ^F ^G | %14
w: |let me thrill a- gain|* to your ca-|ress of yes- ter-|day|let me fill a- gain|* my hun- gry|
"Am" A4- | A"^N.C." a a a |"Dm" a2"G7" g2- | g d ^c d |"F" f f"C" e2- | e e ^d e |"Dm" f2"E7" e2- | %21
w: heart|* one hour of|glad- ness|* that we knew|in the past|* one mo- ments|mad- ness|
 e B _B =B |"Dm" d d"Am" c2 |"F7" c c"E7" B2 |"Am" e/f/g/f/ e2- | e A B c |"Dm" e e e/ _e3/2 | d4 | %28
w: * al- tho it|be the last|hold me fast!|blind me with your charms|* with all the|star- dust in the|sky|
"D7" B/c/d/c/ B2- | B"^N.C." e ^f ^g |"Am" a4- | a3 z |] %32
w: take me in your arms|* and then good-|bye.-||

